X:1
T:St. Columb, 76.76.76.86
T:St. Columb, 76.76.76.86
T:William Stevenson Hoyte, 1889
T:Public Domain Courtesy of the Cyber Hymnal™
C:William Stevenson Hoyte, 1889
Z:Public Domain
Z:Courtesy of the Cyber Hymnal™
%%score ( 1 2 ) ( 3 4 )
L:1/8
Q:1/4=113
M:4/4
K:C
V:1 treble 
V:2 treble 
V:3 bass 
V:4 bass 
V:1
 C2 | E2 G2 c2 G2 | A4 G2 [FG]2 | [Ec]2 [GB]2 [Gc]2 d2 | [Ee]6 [Ge]2 | [Gd]2 [^Fc]2 [GB]2 G2 | %6
 ([^Fd]2 [Dc]2) [DB]2 [DG]2 | [DE]2 [CA]2 [B,G]2 [A,^F]2 x | [G,G]6 G2 | B2 c2 d2 G2 | %10
 c4 G2 [G_B]2 | [FA]2 [FA]2 [FB]2 [Fc]2 | [Fd]6 [FG]2 | [Ec]2 [Ge]2 [Gd]2 [Ec]2 | %14
 [Ff]2 [Ad]2 [Ac]2 [Ge]2 | [Ae]2 [Ad]2 [Gc]2 [GB]2 | [Gc]6 |] %17
V:2
 C2 | E2 G2 c2 G2 | A4 G2 x2 | x6 (GF) | x8 | x6 G2 | x8 | x9 | x6 G2 | B2 c2 d2 G2 | c4 G2 x2 | %11
 x8 | x8 | x8 | x8 | x8 | x6 |] %17
V:3
 C,2 | E,2 G,2 C2 G,2 | A,4 G,2 [G,B,]2 | [A,C]2 D2 [E,C]2 [G,B,]2 | [C,C]6 [C,C]2 | %5
 [B,,D]2 [A,,D]2 [G,,D]2 [E,G,]2 | ([D,A,]2 ^F,2) G,2 [B,,G,]2 | [C,G,]2 [A,,E]2 F3 z C | %8
 [G,,B,]6 G,2 | B,2 C2 D2 G,2 | C4 G,2 [E,C]2 | [F,C]2 [E,C]2 [D,B,]2 [C,A,]2 | [B,,G,]6 [G,B,]2 | %13
 [A,C]2 [E,C]2 [G,B,]2 [A,C]2 | [D,D]2 [F,D]2 [A,E]2 [E,C]2 | [F,^C]2 [F,D]2 [G,E]2 [G,F]2 | %16
 [C,E]6 |] %17
V:4
 C,2 | E,2 G,2 C2 G,2 | A,4 G,2 x2 | x2 (G,F,) x4 | x8 | x8 | x4 G,2 x2 | x4 D,2 D,2 x | x6 G,2 | %9
 B,2 C2 D2 G,2 | C4 G,2 x2 | x8 | x8 | x8 | x8 | x8 | x6 |] %17

